X:1
T:Cinta di rose
T:Cinta di rose
T:Gio.Girolamo Kapsperger
C:Gio.Girolamo Kapsperger
%%score 1 { ( 2 4 ) | 3 }
L:1/8
Q:1/4=120
M:4/4
K:C
V:1 treble nm="Soprano" snm="S"
V:2 treble nm="BC" snm="BC"
V:4 treble 
V:3 bass 
V:1
 d4 d2 d2 | e4 e4 | c3 c c2 d2 | B4 B4 | c4 c2 c2 | d3 d c3 c | c3 B B4 | A8 :: B4 B2 B2 | c4 c4 | %10
w: Cin- ta di|ro- se,|l'o- do- ra- ta|Fio- ra,|lie- ta le|piag- gie co- lo-|ri- te'in fio-|ra.|E gi- gli|de sta|
w: Al nuo- vo|par- to|dol- ce men- to'in-|ten- to,|il ri- vo|go- de nel fu-|ga- ce'ar- gen-|to.|E con ri-|scon- tro|
w: Tor- nan ai|cam- pi|lu- ci- di co-|lo- ri,|il pra- to|s'or- na d'o- do-|ra- ti fio-|ri.|E'l cie- lo|spi- ra|
 B3 B B3 c | A4 A4 | d8- | d6 cd | A8 | G8 :| %16
w: su sur- ran- do|fuo- ra,|l'au-|* ra ca-|no-|ra.|
w: di so- no- ro'ac-|cen- to,|mor-|* mo- ra'il|ven-|to.|
w: di no- vel- li'ho-|no- ri,|ric-|* chi te-|so-|ri.|
V:2
 [GBd]2 [CA]2 G2 [FA]2 | [EGc]2 [FA]2 [EG]4 | [Ac]3 [GB] [EA]2 [FA]2 | [E^G]2 [DA]2 [EB]2 [B,G]2 | %4
 [EAc]2 [DB]2 [Ac]2 [CG]2 | [FAd]2 [GB]2 [FA]4 | [EGc]2 [FA]2 [EG]4 | [Ec]4 [GB]2 [DA]2 :: %8
 B4 d2 B2 | [Ec]2 [DG]2 [EG]2 [Ec]2 | [GB]2 [Ad]2 [DB]2 [EG]2 | A6 c2 | B2 A2 G2 A2 | %13
 A2 G2 B2 A2- | A2 c2 d4 | [DGB]8 :| %16
V:3
 G,2 F,2 E,2 D,2 | C,2 D,2 E,2 C,2 | F,3 G, A,2 D,2 | E,2 ^F,2 ^G,2 E,2 | A,2 G,2 F,2 E,2 | %5
 D,2 E,2 F,2 E,D, | C,2 D,2 E,4 | A,,2 A,2 E,2 ^F,2 :: G,2 E,2 ^F,2 ^G,2 | A,2 B,,2 C,2 A,,2 | %10
 E,2 ^F,2 G,2 C,2 | D,2 A,2 D,2 C,2 | B,,2 A,,2 G,,G,^F,E, | D,2 C,2 B,,2 A,,G,, | %14
 B,,2 C,2 [D,A,]4 | G,,8 :| %16
V:4
 x8 | x8 | x8 | x8 | x8 | x8 | x8 | x8 :: D2 E2 A2 E2 | x8 | x8 | ^F2 E2 F2 G2 | D2 E2 D4 | %13
 ^F2 E2 D2 E2 | D2 E2 G2 ^F2 | x8 :| %16

